build/img/icon-css3.svg

<svg width="69" height="60" viewBox="0 0 69 60" fill="none" xmlns="http://www.w3.org/2000/svg">
  <path d="M4.3125 0L9.81094 54L34.5 60L59.1804 54.0038L64.6875 0H4.3125Z" fill="#2196F3"/>
  <path d="M52.9313 17.6588L52.237 24.4425L50.1412 44.7788L34.4997 48.54L34.4868 48.5438L18.854 44.7788L17.7629 34.1438H25.4219L25.9912 39.66L34.4911 41.655L34.4954 41.6513L43.0083 39.6563L44.1683 30.465L17.3963 30.5288L16.6373 24.2438L44.8109 23.955L45.3802 17.2275L15.8827 17.2988L15.3867 11.04H34.4997H53.6127L52.9313 17.6588Z" fill="#FAFAFA"/>
</svg>

<svg width="69" height="60" fill="none" xmlns="http://www.w3.org/2000/svg"><path d="M4.313 0L9.81 54l24.69 6 24.68-5.996L64.688 0H4.312z" fill="#2196F3"/><path d="M52.931 17.659l-.694 6.784-2.096 20.336L34.5 48.54l-.013.004-15.633-3.765-1.091-10.635h7.659l.57 5.516 8.5 1.995.003-.004 8.513-1.995 1.16-9.191-26.772.064-.759-6.285 28.174-.289.57-6.727-29.498.07-.496-6.258h38.226l-.682 6.619z" fill="#FAFAFA"/></svg>
